actions/16/gnumeric-pagesetup-hf-page.svg

<!DOCTYPE svg>
<svg viewBox="0 0 16 16" version="1.1" xmlns="http://www.w3.org/2000/svg">
    <defs>
    <style type="text/css" id="current-color-scheme">.ColorScheme-Text {color:#fcfcfc;}</style>
    </defs>
    <path class="ColorScheme-Text" style="fill:currentColor; fill-opacity:1; stroke:none" d="m 3,4 c 0,2 0,6 0,8 0,2 2,2 2,2 H 7 V 13 H 5 C 5,13 4,13 4,12 4,11 4,5 4,4 4,3 5,3 5,3 h 4 v 3 h 3 v 1 h 1 V 5 L 10,2 H 5 C 5,2 3,2 3,4 Z M 9,8 V 9 H 8 v 1 h 1 v 2 H 8 v 1 h 1 v 1 h 1 v -1 h 2 v 1 h 1 v -1 h 1 v -1 h -1 v -2 h 1 V 9 H 13 V 8 H 12 V 9 H 10 V 8 Z m 1,2 h 2 v 2 h -2 z"/>
</svg>

<!DOCTYPE svg>
<svg viewBox="0 0 16 16" version="1.1" xmlns="http://www.w3.org/2000/svg">
    <defs>
        <style type="text/css" id="current-color-scheme">
            .ColorScheme-Text {
                color:#eff0f1;
            }
        </style>
    </defs>
    <path class="ColorScheme-Text" style="fill:currentColor; fill-opacity:1; stroke:none" d="M 3 2 L 3 14 L 7 14 L 7 13 L 4 13 L 4 3 L 9 3 L 9 6 L 12 6 L 12 7 L 13 7 L 13 5 L 10 2 L 3 2 Z M 9 8 L 9 9 L 8 9 L 8 10 L 9 10 L 9 12 L 8 12 L 8 13 L 9 13 L 9 14 L 10 14 L 10 13 L 12 13 L 12 14 L 13 14 L 13 13 L 14 13 L 14 12 L 13 12 L 13 10 L 14 10 L 14 9 L 13 9 L 13 8 L 12 8 L 12 9 L 10 9 L 10 8 L 9 8 Z M 10 10 L 12 10 L 12 12 L 10 12 L 10 10 Z"/>
</svg>
